priv/static/svgs/icons_new/sport-equestrian.svg

<svg width="32" height="32" viewBox="0 0 32 32" fill="none" xmlns="http://www.w3.org/2000/svg">
<path d="M25.2581 16.8039C25.2581 16.8039 23.6068 17.4772 20.5121 17.8358M25.2581 16.8039L27.3775 17.3952C28.0107 17.5714 28.2122 18.339 27.741 18.7837C27.289 19.21 23.2209 19.8115 18.6838 19.0706M25.2581 16.8039C22.4662 4.88318 12.6958 6.9306 12.6958 6.9306C4.99353 8.41134 3.82513 14.0043 4.01916 17.9537C4.09378 19.4682 4.41253 20.9633 4.94023 22.3928L5.04577 22.6787M10.037 7.59872C9.80676 7.32512 9.66924 6.97569 9.66924 6.59653C9.66924 5.71526 10.4133 5 11.3302 5C12.247 5 12.9911 5.71526 12.9911 6.59653C12.9911 6.69593 12.9815 6.79226 12.9633 6.88653M5.04577 22.6787C5.8549 22.1325 9.67351 19.9242 11.5039 19.4159C13.8343 18.7683 16.2926 18.6802 18.6838 19.0706M5.04577 22.6787C5.26537 23.1665 5.51163 23.601 5.77281 23.9863C7.05954 25.882 9.28013 27 11.635 27C15.5283 27 18.6838 23.9658 18.6838 20.2245V19.0706" stroke="black" stroke-miterlimit="10"/>
</svg>

<svg width="32" height="32" viewBox="0 0 32 32" fill="none" xmlns="http://www.w3.org/2000/svg">
  <symbol id="item" viewBox="0 0 32 32" stroke-width="1" fill="none">
    <path d="M25.258 16.804s-1.651.673-4.746 1.032m4.746-1.032 2.12.591c.633.176.834.944.363 1.389-.452.426-4.52 1.027-9.057.287m6.574-2.267C22.466 4.884 12.696 6.93 12.696 6.93c-7.702 1.48-8.87 7.073-8.677 11.023.075 1.514.394 3.01.921 4.439l.106.286m4.991-15.08a1.551 1.551 0 0 1-.368-1.002C9.67 5.715 10.413 5 11.33 5s1.661.715 1.661 1.597c0 .099-.01.195-.028.29M5.046 22.679c.809-.546 4.628-2.755 6.458-3.263 2.33-.648 4.789-.736 7.18-.345M5.046 22.679c.22.488.466.922.727 1.307C7.06 25.882 9.28 27 11.635 27c3.893 0 7.049-3.034 7.049-6.776v-1.153" stroke="currentColor" stroke-miterlimit="10"/>
  </symbol>
</svg>
